X:1
T:What eyes like thine, eternal Sire
T:William Shield
T:p37, Improved Psalmody, ed. W. D. Tattersall, London: (1794).
T:This edition by Edmund Gooch released into the public domain, January 2015.
T:What eyes like thine, eternal Sire
T:An Intercession for the Afflicted
C:William Shield
Z:p37, Improved Psalmody,
Z:ed. W. D. Tattersall,
Z:London: (1794).
%%score [ 1 2 3 ]
L:1/8
M:3/2
K:Dmin
V:1 treble nm="Soprano" snm="S."
V:2 treble nm="Alto" snm="A."
V:3 bass nm="Bass" snm="B."
V:1
 A4 | d8 e4 | f8 e4 | d8 ^c4 | d8 d4 | d8 d4 | B8 G4 | (A4 G4) F4 | c8 c4 | B8 B4 | A8 G4 | F8 F4 | %12
w: O|break the|arm of|im- pious|might; So|shall their|threats no|more _ ex-|cite Our|dread, nor|thy of-|fen- ded|
w: What|eyes like|thine, e-|ter- nal|Sire, Through|sin’s ob-|scu- rest|depths _ in-|quire? What|judge like|thee on|vir- tue’s|
w: The|meek ob-|ser- ver|of thy|laws To|thee com-|mits his|in- * jur’d|cause; In|thee, each|an- xious|fear re-|
 E8 (E2 G2) | B8 B4 | (A6 G2) F4 | F8 TE4 | D8 |] %17
w: eye The _|tri- umphs|of _ their|guilt de-|scry.|
w: foes The _|need- ful|ven- * geance|can im-|pose?|
w: sign’d, The _|fa- ther-|less _ a|fa- ther|find.|
V:2
 A4 | A8 ^c4 | (d4 A4) B4 | F8 E4 | D8 F4 | F8 A4 | G8 E4 | F4 =B,8 | C8 E4 | E8 E4 | F8 E4 | %11
w: O|break the|arm _ of|im- pious|might; So|shall their|threats no|more ex-|cite Our|dread, nor|thy of-|
w: What|eyes like|thine, _ e-|ter- nal|Sire, Through|sin’s ob-|scu- rest|depths in-|quire? What|judge like|thee on|
w: The|meek ob-|ser- * ver|of thy|laws To|thee com-|mits his|in- jur’d|cause; In|thee, each|an- xious|
 D8 D4 | ^C8 E4 | E8 E4 | (F6 E2) D4 | D8"^[""^]" T^C4 | D8 |] %17
w: fen- ded|eye The|tri- umphs|of _ their|guilt de-|scry.|
w: vir- tue’s|foes The|need- ful|ven- * geance|can im-|pose?|
w: fear re-|sign’d, The|fa- ther-|less _ a|fa- ther|find.|
V:3
 A,4 | F,8 E,4 | D,8 G,4 | A,8 A,,4 | D,8 D,4 | D8 F,4 | G,8 C4 | F,4 D,8 | C,8 C,4 | %9
w: O|break the|arm of|im- pious|might; So|shall their|threats no|more ex-|cite Our|
w: What|eyes like|thine, e-|ter- nal|Sire, Through|sin’s ob-|scu- rest|depths in-|quire? What|
w: The|meek ob-|ser- ver|of thy|laws To|thee com-|mits his|in- jur’d|cause; In|
"^Notes: This setting is attributed to 'Wm. Shield' in the source. Only the first verse of the six given here is underlaid in thesource: the other verses are printed after the music and have been underlaid editorially. The bass G on beat 1 of bar 12appears to be intentional, as the same note is given in the 1795 reissue of Improved Psalmody in partbook format(pp26-27 of the Bass partbook)." ^C,8 C,4 | %10
w: dread, nor|
w: judge like|
w: thee, each|
 D,8 E,4 | F,8 G,4 | G,8 G,4 | ^C,8 C,4 | (D,6 E,2) (F,2 G,2) | A,8 A,,4 | D,8 |] %17
w: thy of-|fen- ded|eye The|tri- umphs|of _ their _|guilt de-|scry.|
w: thee on|vir- tue’s|foes The|need- ful|ven- * geance _|can im-|pose?|
w: an- xious|fear re-|sign’d, The|fa- ther-|less _ a _|fa- ther|find.|

